X:46
T: Sln le migh, S. 93
N: I0545
O: Irland
S: O'SULLIVAN, Donal: Song of the Irish]
N: Vorhalte weggelassen, Melismen!
R: Abschiedslied]
M: 4/4
L: 1/16
K: Eb
B2c2 | _d3cd2e2d2c2B2A2 | G4F3EE4
B2c2 | _d3cd2e2d2c2B2G2 | B4c2e2e6
e2 | _d4d2e2c4B2G2 | G4F2E2E4
E2FG | A4_d4c4B2G2 | A4B2c2_d4
B3A | G4F4E4E2F2 | G4F2E2E4E2
F2 | G4_d2c2B4A2G2 | A4B2c2_d4B2
A2 | G4F4E4E2F2 | G4B2cde4B3
A | G6E2F6E2 | E8E4

@@@ Tune index: 7321
